X:1
T:Title
%%score { ( 1 3 4 ) | ( 2 5 ) }
L:1/8
M:4/4
K:G
V:1 treble nm="Grand Piano"
V:3 treble 
V:4 treble 
V:2 treble 
V:5 treble 
V:1
 z4 z2[Q:1/4=100] G>A | B>_B =B>c c<B A>G | B>d ^c>e d2 d>d | %3
 [Fd][FA] [FA]>[GB] [Ac]<[Ac] [Fd]>[DFc] | [DGB]>[B,DG] [EG]>[CE] [B,D]2 [B,D]>[B,D] | %5
 G>F G>A B<B B>A | GB d>e d2 B>B | [FA]>[GB] [Fc]>[Fe] [Gd][DGB] [DG]>[EGA] | %8
[M:3/4] [DGB]>[B,G] [DFB]>[CFA] [B,DG]2 |[M:1/4] B>c |[M:4/4] d4 z4 | c4 z4 | G>F G>A B<e d>B | %13
 z4 z C B>c | d4 z2 .G2 |[M:9/8] E3 G [Ec]2- [Ec][Ge]>[Ge] | %16
[M:4/4] [Gd]>[GB] [Gd]>[DGB] [CDA]<[B,DG] [DFB]>[CFA] |[M:3/4] G6 |] %18
V:2
 z4 z2 [G,B,D]>[G,CD] | [G,DG]>[G,^CG] [G,DG]>[G,EG] [G,EG]<[G,DG] [G,=CD]>[G,B,D] | %2
 [G,DG]>[G,B,G] [G,_B,G]>[G,B,G] [G,=B,G]2 [G,B,G]>[G,B,G] | %3
 [D,A,][D,D] [D,D]>[D,D] [D,D]<[D,D] [D,A,]>D, | G,,>G,, [G,,G,]>[G,,G,] [G,,G,]2 [G,,G,]>[G,,G,] | %5
 [G,B,D]>[G,A,D] [G,B,D]>[G,CD] [G,DG]<[G,DG] [G,D]>[G,CD] | %6
 [G,B,D][G,DG] [G,B,G]>[G,CG] [G,B,G]2 [G,DG]>[G,DG] | [D,D]>[D,D] [D,A,]>[D,C] [G,B,]G, B,,>B,, | %8
[M:3/4] D,>D, D,>D, G,,2 |[M:1/4] z2 | %10
[M:4/4][K:treble] [G,B,G]2 [G,B,]2[K:bass] [G,B,D]2 [G,B,D]2 | %11
 [D,A,]2 [D,A,]2 [D,A,D][D,A,] [F,A,]>[K:treble][A,C] | %12
 [G,B,D]>[G,A,D] [G,B,D]>[G,CD] [G,DG]<[G,CG] [G,B,G]>[G,DG] | %13
 [D,D]2 D>[K:treble]D D2 [B,DG]>[A,DG] | [G,B,G]2 z B[K:bass] G,2 B,,2 | %15
[M:9/8] [C,G,C]3- [C,G,C] [C,G,]2- [C,G,][C,C]>[C,C] |[M:4/4] [D,B,]>[D,D] [D,B,]>D, D,<D, D,>D, | %17
[M:3/4] z2 C>C B,2 |] %18
V:3
 x8 | x8 | x8 | x8 | x8 | x8 | x8 | x8 |[M:3/4] x6 |[M:1/4] x2 |[M:4/4] z2 z B G2 dd | %11
 z2 F2 F2 z2 | x8 | [FA]6 z2 | z2 G2 [B,DG]2 [G,D]-[G,DF] |[M:9/8] x9 |[M:4/4] x8 | %17
[M:3/4] [B,D]2 E>E D2 |] %18
V:4
 x8 | x8 | x8 | x8 | x8 | x8 | x8 | x8 |[M:3/4] x6 |[M:1/4] x2 |[M:4/4] z2 G2 z4 | F2 z A z D D>D | %12
 x8 | x8 | x8 |[M:9/8] x9 |[M:4/4] x8 |[M:3/4] x6 |] %18
V:5
 x8 | x8 | x8 | x8 | x8 | x8 | x8 | x8 |[M:3/4] x6 |[M:1/4] x2 |[M:4/4][K:treble] x4[K:bass] x4 | %11
 x15/2[K:treble] x/ | x8 | x7/2[K:treble] x9/2 | z2 [G,B,]2[K:bass] z4 |[M:9/8] x9 |[M:4/4] x8 | %17
[M:3/4] G,,6 |] %18

